z-union/img/icons/tab-icons/tab-icon-4.svg

<svg width="55" height="55" viewBox="0 0 55 55" fill="none" xmlns="http://www.w3.org/2000/svg">
<path d="M48.6376 25.9043H6.25488V28.0017H48.6376V25.9043Z" fill="#232322"/>
<path d="M27.4465 51.6461C14.0906 51.6461 3.24756 40.7833 3.24756 27.4472C3.24756 14.1111 14.1104 3.22852 27.4465 3.22852C40.7826 3.22852 51.6454 14.0913 51.6454 27.4274C51.6454 40.7635 40.8024 51.6461 27.4465 51.6461ZM27.4465 5.32589C15.258 5.32589 5.34493 15.2587 5.34493 27.4472C5.34493 39.6357 15.258 49.5488 27.4465 49.5488C39.635 49.5488 49.548 39.6357 49.548 27.4472C49.548 15.2587 39.6548 5.32589 27.4465 5.32589Z" fill="#232322"/>
<path d="M27.4463 51.6461V49.5488C39.6348 49.5488 49.5478 39.6357 49.5478 27.4472C49.5478 15.2587 39.6546 5.32589 27.4463 5.32589V3.22852C40.8022 3.22852 51.6452 14.0913 51.6452 27.4274C51.6452 40.7635 40.8022 51.6461 27.4463 51.6461Z" fill="#975295"/>
<path d="M28.4951 5.74316H26.3977V48.1259H28.4951V5.74316Z" fill="#975295"/>
<path d="M27.4462 7.52123C29.2383 7.52123 30.6912 6.0684 30.6912 4.27624C30.6912 2.48408 29.2383 1.03125 27.4462 1.03125C25.654 1.03125 24.2012 2.48408 24.2012 4.27624C24.2012 6.0684 25.654 7.52123 27.4462 7.52123Z" fill="#151514"/>
<path d="M27.4661 8.59112C27.4067 8.59112 27.3671 8.59112 27.3078 8.59112C26.1601 8.55155 25.0917 8.05688 24.32 7.22585C23.5285 6.39482 23.1328 5.28677 23.1724 4.13915C23.2515 1.76477 25.25 -0.0951615 27.6243 0.00377104C29.9987 0.0829171 31.8587 2.08136 31.7597 4.45574C31.7202 5.60336 31.2255 6.67183 30.3945 7.4435C29.5832 8.1756 28.5543 8.59112 27.4661 8.59112ZM27.4463 2.08136C26.2789 2.08136 25.2895 3.01132 25.25 4.19851C25.2302 4.79211 25.428 5.34613 25.8436 5.78143C26.2393 6.21674 26.7933 6.45418 27.3671 6.47396C27.9409 6.47396 28.5147 6.29588 28.95 5.88037C29.3853 5.48464 29.6228 4.93061 29.6426 4.3568C29.6821 3.14983 28.7324 2.12093 27.5254 2.08136C27.5056 2.08136 27.4858 2.08136 27.4463 2.08136Z" fill="#975295"/>
<path d="M27.4464 53.8445C29.2386 53.8445 30.6914 52.3916 30.6914 50.5995C30.6914 48.8073 29.2386 47.3545 27.4464 47.3545C25.6542 47.3545 24.2014 48.8073 24.2014 50.5995C24.2014 52.3916 25.6542 53.8445 27.4464 53.8445Z" fill="#151514"/>
<path d="M27.4661 54.8927C27.4068 54.8927 27.3672 54.8927 27.3079 54.8927C24.9335 54.8136 23.0735 52.8152 23.1725 50.4408C23.212 49.2932 23.7067 48.2247 24.5377 47.453C25.3688 46.6616 26.457 46.246 27.6244 46.3054C28.7721 46.345 29.8405 46.8396 30.6122 47.6707C31.4037 48.5017 31.7994 49.6097 31.7598 50.7574C31.6609 53.0724 29.7614 54.8927 27.4661 54.8927ZM27.4464 48.4028C26.8923 48.4028 26.3581 48.6006 25.9426 48.9964C25.5073 49.3921 25.2698 49.9461 25.2501 50.5199C25.2105 51.7269 26.1602 52.7558 27.3672 52.7954C28.5742 52.8349 29.6031 51.8852 29.6427 50.6782C29.6624 50.0846 29.4646 49.5306 29.0491 49.0953C28.6533 48.66 28.0993 48.4226 27.5255 48.4028C27.5057 48.4028 27.4859 48.4028 27.4464 48.4028Z" fill="#975295"/>
<path d="M50.6163 30.6921C52.4085 30.6921 53.8613 29.2393 53.8613 27.4471C53.8613 25.655 52.4085 24.2021 50.6163 24.2021C48.8242 24.2021 47.3713 25.655 47.3713 27.4471C47.3713 29.2393 48.8242 30.6921 50.6163 30.6921Z" fill="#151514"/>
<path d="M50.6163 31.7402C50.5569 31.7402 50.5174 31.7402 50.458 31.7402C48.0836 31.661 46.2237 29.6626 46.3226 27.2882C46.4018 24.9139 48.42 23.0737 50.7746 23.1529C51.9222 23.1924 52.9907 23.6871 53.7624 24.5181C54.534 25.3689 54.9495 26.4572 54.91 27.6048C54.8704 28.7524 54.3757 29.8209 53.5447 30.5926C52.7334 31.3247 51.7046 31.7402 50.6163 31.7402ZM50.6163 25.2304C49.4489 25.2304 48.4596 26.1604 48.42 27.3476C48.3804 28.5546 49.3302 29.5835 50.5371 29.623C51.111 29.6428 51.6848 29.445 52.1201 29.0294C52.5554 28.6337 52.7928 28.0797 52.8126 27.5059C52.8324 26.9123 52.6345 26.3583 52.219 25.923C51.8035 25.4877 51.2693 25.2502 50.6954 25.2304C50.6559 25.2304 50.6361 25.2304 50.6163 25.2304Z" fill="#975295"/>
<path d="M27.4464 30.6921C29.2386 30.6921 30.6914 29.2393 30.6914 27.4471C30.6914 25.655 29.2386 24.2021 27.4464 24.2021C25.6542 24.2021 24.2014 25.655 24.2014 27.4471C24.2014 29.2393 25.6542 30.6921 27.4464 30.6921Z" fill="#151514"/>
<path d="M27.4661 31.7402C27.4068 31.7402 27.3672 31.7402 27.3079 31.7402C24.9335 31.661 23.0735 29.6626 23.1725 27.2882C23.2516 24.9139 25.2698 23.0737 27.6244 23.1529C28.7721 23.1924 29.8405 23.6871 30.6122 24.5181C31.4037 25.3689 31.7994 26.4572 31.7598 27.6048C31.7202 28.7524 31.2256 29.8209 30.3945 30.5926C29.5833 31.3247 28.5544 31.7402 27.4661 31.7402ZM27.4464 25.2304C26.279 25.2304 25.2896 26.1604 25.2501 27.3476C25.2105 28.5546 26.1602 29.5835 27.3672 29.623C27.941 29.6428 28.5148 29.445 28.9501 29.0294C29.3854 28.6337 29.6229 28.0797 29.6427 27.5059C29.6624 26.9123 29.4646 26.3583 29.0491 25.923C28.6533 25.4877 28.0993 25.2502 27.5255 25.2304C27.5057 25.2304 27.4859 25.2304 27.4464 25.2304Z" fill="#975295"/>
<path d="M4.29601 30.6921C6.08817 30.6921 7.541 29.2393 7.541 27.4471C7.541 25.655 6.08817 24.2021 4.29601 24.2021C2.50386 24.2021 1.05103 25.655 1.05103 27.4471C1.05103 29.2393 2.50386 30.6921 4.29601 30.6921Z" fill="#151514"/>
<path d="M4.29611 31.7404C4.23675 31.7404 4.19718 31.7404 4.13782 31.7404C1.78322 31.6415 -0.0767108 29.6431 0.00243526 27.2885C0.0420083 26.1409 0.536671 25.0724 1.3677 24.3007C2.19874 23.5092 3.287 23.1135 4.4544 23.1531C5.60202 23.1927 6.67049 23.6873 7.44217 24.5184C8.23363 25.3692 8.62936 26.4574 8.58978 27.6051C8.55021 28.7527 8.05555 29.8211 7.22451 30.5928C6.43305 31.3249 5.38437 31.7404 4.29611 31.7404ZM4.29611 25.2307C3.74209 25.2307 3.20785 25.4285 2.79233 25.8243C2.35703 26.22 2.11959 26.774 2.09981 27.3478C2.06023 28.5548 3.00999 29.5837 4.21696 29.6233C4.79077 29.6431 5.36458 29.4452 5.79988 29.0297C6.23519 28.634 6.47263 28.0799 6.49241 27.5061C6.5122 26.9125 6.31433 26.3585 5.89882 25.9232C5.50309 25.4879 4.94906 25.2505 4.37526 25.2307C4.35547 25.2307 4.33568 25.2307 4.29611 25.2307Z" fill="#232322"/>
</svg>

<svg width="55" height="55" fill="none" xmlns="http://www.w3.org/2000/svg"><path d="M48.638 25.904H6.255v2.098h42.383v-2.098z" fill="#232322"/><path d="M27.447 51.646c-13.356 0-24.2-10.863-24.2-24.199 0-13.336 10.863-24.218 24.2-24.218 13.336 0 24.198 10.862 24.198 24.198 0 13.337-10.843 24.22-24.199 24.22zm0-46.32c-12.189 0-22.102 9.933-22.102 22.121 0 12.189 9.913 22.102 22.102 22.102 12.188 0 22.101-9.913 22.101-22.102 0-12.188-9.893-22.121-22.102-22.121z" fill="#232322"/><path d="M27.446 51.646V49.55c12.189 0 22.102-9.913 22.102-22.102 0-12.188-9.893-22.121-22.102-22.121V3.229c13.356 0 24.2 10.862 24.2 24.198 0 13.337-10.844 24.22-24.2 24.22z" fill="#975295"/><path d="M28.495 5.743h-2.097v42.383h2.097V5.743z" fill="#975295"/><path d="M27.446 7.521a3.245 3.245 0 100-6.49 3.245 3.245 0 000 6.49z" fill="#151514"/><path d="M27.466 8.591h-.158a4.27 4.27 0 01-2.988-1.365c-.791-.831-1.187-1.94-1.148-3.087A4.28 4.28 0 0127.624.004a4.28 4.28 0 014.136 4.452 4.27 4.27 0 01-1.366 2.987 4.36 4.36 0 01-2.928 1.148zm-.02-6.51c-1.167 0-2.157.93-2.196 2.118a2.14 2.14 0 00.594 1.582c.395.436.95.673 1.523.693.574 0 1.148-.178 1.583-.594a2.15 2.15 0 00.693-1.523 2.206 2.206 0 00-2.118-2.276h-.079z" fill="#975295"/><path d="M27.446 53.844a3.245 3.245 0 100-6.49 3.245 3.245 0 000 6.49z" fill="#151514"/><path d="M27.466 54.893h-.158a4.28 4.28 0 01-4.136-4.452 4.27 4.27 0 011.366-2.988 4.124 4.124 0 013.086-1.148 4.27 4.27 0 012.988 1.366c.792.83 1.187 1.939 1.148 3.086-.1 2.315-1.999 4.136-4.294 4.136zm-.02-6.49c-.554 0-1.088.198-1.503.593a2.15 2.15 0 00-.693 1.524c-.04 1.207.91 2.236 2.117 2.275a2.206 2.206 0 002.276-2.117 2.144 2.144 0 00-.594-1.583 2.15 2.15 0 00-1.523-.692h-.08z" fill="#975295"/><path d="M50.616 30.692a3.245 3.245 0 100-6.49 3.245 3.245 0 000 6.49z" fill="#151514"/><path d="M50.616 31.74h-.158a4.28 4.28 0 01-4.135-4.452c.079-2.374 2.097-4.214 4.452-4.135a4.27 4.27 0 012.987 1.365 4.347 4.347 0 011.148 3.087 4.27 4.27 0 01-1.365 2.988 4.36 4.36 0 01-2.929 1.147zm0-6.51c-1.167 0-2.156.93-2.196 2.118-.04 1.207.91 2.236 2.117 2.275a2.173 2.173 0 001.583-.594 2.15 2.15 0 00.693-1.523 2.144 2.144 0 00-.594-1.583 2.187 2.187 0 00-1.524-.693h-.079z" fill="#975295"/><path d="M27.446 30.692a3.245 3.245 0 100-6.49 3.245 3.245 0 000 6.49z" fill="#151514"/><path d="M27.466 31.74h-.158a4.28 4.28 0 01-4.136-4.452c.08-2.374 2.098-4.214 4.452-4.135a4.27 4.27 0 012.988 1.365 4.262 4.262 0 011.148 3.087 4.27 4.27 0 01-1.366 2.988 4.36 4.36 0 01-2.928 1.147zm-.02-6.51c-1.167 0-2.156.93-2.196 2.118-.04 1.207.91 2.236 2.117 2.275a2.173 2.173 0 001.583-.594 2.15 2.15 0 00.693-1.523 2.144 2.144 0 00-.594-1.583 2.15 2.15 0 00-1.523-.693h-.08z" fill="#975295"/><path d="M4.296 30.692a3.245 3.245 0 100-6.49 3.245 3.245 0 000 6.49z" fill="#151514"/><path d="M4.296 31.74h-.158c-2.355-.098-4.215-2.097-4.136-4.45a4.27 4.27 0 011.366-2.99c.83-.792 1.919-1.188 3.086-1.148a4.27 4.27 0 012.988 1.365 4.262 4.262 0 011.148 3.087 4.27 4.27 0 01-1.365 2.988 4.323 4.323 0 01-2.929 1.147zm0-6.51c-.554 0-1.088.198-1.504.594a2.15 2.15 0 00-.692 1.524c-.04 1.207.91 2.236 2.117 2.275A2.174 2.174 0 005.8 29.03a2.15 2.15 0 00.692-1.524 2.144 2.144 0 00-.593-1.583 2.15 2.15 0 00-1.524-.692h-.079z" fill="#232322"/></svg>
